public/images/social-icons/github.svg

<svg width="32" height="32" viewBox="0 0 32 32" fill="none" xmlns="http://www.w3.org/2000/svg">
<g clip-path="url(#clip0_1250_45)">
<path d="M16 0.39602C7.161 0.39602 0 7.56302 0 16.396C0 23.469 4.584 29.464 10.937 31.579C11.74 31.73 12.03 31.235 12.03 30.807C12.03 30.427 12.021 29.422 12.015 28.088C7.562 29.052 6.624 25.937 6.624 25.937C5.895 24.093 4.843 23.598 4.843 23.598C3.395 22.609 4.958 22.63 4.958 22.63C6.562 22.739 7.406 24.275 7.406 24.275C8.833 26.723 11.15 26.015 12.067 25.603C12.207 24.572 12.624 23.863 13.078 23.468C9.526 23.067 5.791 21.692 5.791 15.561C5.791 13.81 6.411 12.384 7.436 11.264C7.259 10.863 6.717 9.23302 7.577 7.02902C7.577 7.02902 8.916 6.60202 11.977 8.67002C13.258 8.31502 14.618 8.13802 15.977 8.12902C17.337 8.13802 18.696 8.31602 19.977 8.67002C23.02 6.60202 24.358 7.02902 24.358 7.02902C25.217 9.23302 24.675 10.862 24.519 11.264C25.534 12.384 26.154 13.811 26.154 15.561C26.154 21.706 22.414 23.061 18.858 23.452C19.414 23.931 19.935 24.916 19.935 26.411C19.935 28.551 19.915 30.275 19.915 30.796C19.915 31.212 20.195 31.712 21.019 31.551C27.419 29.458 31.998 23.458 31.998 16.395C31.998 7.56202 24.837 0.39502 15.998 0.39502L16 0.39602Z" fill="white"/>
</g>
<defs>
<clipPath id="clip0_1250_45">
<rect width="32" height="32" fill="white"/>
</clipPath>
</defs>
</svg>

<svg width="32px" height="32px" viewBox="0 0 32 32" xmlns="http://www.w3.org/2000/svg">
  <path d="M16 0.396c-8.839 0-16 7.167-16 16 0 7.073 4.584 13.068 10.937 15.183 0.803 0.151 1.093-0.344 1.093-0.772 0-0.38-0.009-1.385-0.015-2.719-4.453 0.964-5.391-2.151-5.391-2.151-0.729-1.844-1.781-2.339-1.781-2.339-1.448-0.989 0.115-0.968 0.115-0.968 1.604 0.109 2.448 1.645 2.448 1.645 1.427 2.448 3.744 1.74 4.661 1.328 0.14-1.031 0.557-1.74 1.011-2.135-3.552-0.401-7.287-1.776-7.287-7.907 0-1.751 0.62-3.177 1.645-4.297-0.177-0.401-0.719-2.031 0.141-4.235 0 0 1.339-0.427 4.4 1.641 1.281-0.355 2.641-0.532 4-0.541 1.36 0.009 2.719 0.187 4 0.541 3.043-2.068 4.381-1.641 4.381-1.641 0.859 2.204 0.317 3.833 0.161 4.235 1.015 1.12 1.635 2.547 1.635 4.297 0 6.145-3.74 7.5-7.296 7.891 0.556 0.479 1.077 1.464 1.077 2.959 0 2.14-0.020 3.864-0.020 4.385 0 0.416 0.28 0.916 1.104 0.755 6.4-2.093 10.979-8.093 10.979-15.156 0-8.833-7.161-16-16-16z"/>
</svg>
